!!!OTL: ES WELKEN ALLE BLAETTER
!!!ARE: Europa, Mitteleuropa, Deutschland, Wetzlar, Klein - Altstaedten
!!!SCT: B0152
!!!YEM: Copyright 1995, estate of Helmut Schaffrath.
**kern
*ICvox
*Ivox
*M4/4
*k[f#c#g#]
*A:
{4e
=1
4.a
8e
4c#
4e
=2
4a
4c#
4c#}
{4ee
=3
4.b
8a
4g#
4a
=4
2b
4r}
{4e
=5
4.a
8e
4c#
4e
=6
4a
4c#
4c#}
{4ee
=7
4.b
8a
4g#
4a
=8
2b
4r}
{8a
8b
=9
4.cc#
8cc#
4.cc#
8cc#
=10
4cc#
4ee
4dd}
{4cc#
=11
4.b
8b
4.b
8b
=12
4b
4ff#
4ee}
{8ee
8dd
=13
4cc#
4cc#
4b
4b
=14
2a
4r}
==
!!!AGN: Ballade, Romanze
!!!ONB: ESAC (Essen Associative Code) Database: BOEHME
!!!AMT: simple quadruple
!!!AIN: vox
!!!EED: Helmut Schaffrath
!!!EEV: 1.0
*-
